SVG_Azure_Grouped/Application/Application Service plan.svg

<?xml version="1.0" encoding="UTF-8" standalone="no"?>
<!-- Generated by Microsoft Visio, SVG Export Application Service plan.svg Page-1 -->

<svg
   xmlns:dc="http://purl.org/dc/elements/1.1/"
   xmlns:cc="http://creativecommons.org/ns#"
   xmlns:rdf="http://www.w3.org/1999/02/22-rdf-syntax-ns#"
   xmlns:svg="http://www.w3.org/2000/svg"
   xmlns="http://www.w3.org/2000/svg"
   xmlns:sodipodi="http://sodipodi.sourceforge.net/DTD/sodipodi-0.dtd"
   xmlns:inkscape="http://www.inkscape.org/namespaces/inkscape"
   width="0.7874167in"
   height="0.78741539in"
   viewBox="0 0 56.69391 56.693891"
   xml:space="preserve"
   class="st5"
   version="1.1"
   id="svg56"
   sodipodi:docname="Application Service plan.svg"
   style="font-size:12px;overflow:visible;color-interpolation-filters:sRGB;fill:none;fill-rule:evenodd;stroke-linecap:square;stroke-miterlimit:3"
   inkscape:version="0.92.5 (2060ec1f9f, 2020-04-08)"><metadata
   id="metadata60"><rdf:RDF><cc:Work
       rdf:about=""><dc:format>image/svg+xml</dc:format><dc:type
         rdf:resource="http://purl.org/dc/dcmitype/StillImage" /></cc:Work></rdf:RDF></metadata><sodipodi:namedview
   pagecolor="#ffffff"
   bordercolor="#666666"
   borderopacity="1"
   objecttolerance="10"
   gridtolerance="10"
   guidetolerance="10"
   inkscape:pageopacity="0"
   inkscape:pageshadow="2"
   inkscape:window-width="640"
   inkscape:window-height="480"
   id="namedview58"
   showgrid="false"
   inkscape:zoom="1.4193037"
   inkscape:cx="37.795327"
   inkscape:cy="37.791172"
   inkscape:window-x="0"
   inkscape:window-y="0"
   inkscape:window-maximized="0"
   inkscape:current-layer="svg56" />
	<style
   type="text/css"
   id="style2">
	<![CDATA[
		.st1 {fill:url(#grad0-6);stroke:none;stroke-linecap:butt;stroke-width:34}
		.st2 {fill:#003067;stroke:none;stroke-linecap:butt;stroke-width:34}
		.st3 {fill:#50e6ff;stroke:none;stroke-linecap:butt;stroke-width:34}
		.st4 {fill:url(#grad0-16);stroke:none;stroke-linecap:butt;stroke-width:34}
		.st5 {fill:none;fill-rule:evenodd;font-size:12px;overflow:visible;stroke-linecap:square;stroke-miterlimit:3}
	]]>
	</style>

	<defs
   id="Patterns_And_Gradients">
		<linearGradient
   id="grad0-6"
   x1="-0.00037014568"
   y1="52.389714"
   x2="43.663562"
   y2="52.389714"
   gradientTransform="scale(0.77021408,1.2983403)"
   gradientUnits="userSpaceOnUse">
			<stop
   offset="0.05"
   stop-color="#949494"
   stop-opacity="1"
   id="stop4" />
			<stop
   offset="0.36"
   stop-color="#979797"
   stop-opacity="1"
   id="stop6" />
			<stop
   offset="0.54"
   stop-color="#9f9f9f"
   stop-opacity="1"
   id="stop8" />
			<stop
   offset="0.69"
   stop-color="#adadad"
   stop-opacity="1"
   id="stop10" />
			<stop
   offset="0.73"
   stop-color="#b3b3b3"
   stop-opacity="1"
   id="stop12" />
		</linearGradient>
		<linearGradient
   id="grad0-16"
   x1="0"
   y1="108.26292"
   x2="39.09265"
   y2="108.26292"
   gradientTransform="scale(1.181552,0.84634445)"
   gradientUnits="userSpaceOnUse">
			<stop
   offset="0.18"
   stop-color="#5ea0ef"
   stop-opacity="1"
   id="stop15" />
			<stop
   offset="1"
   stop-color="#0078d4"
   stop-opacity="1"
   id="stop17" />
		</linearGradient>
	</defs>
	<g
   id="g54"
   transform="translate(-34.000096,-34.003978)">
		<title
   id="title21">Page-1</title>
		<g
   id="group14372-1"
   transform="translate(34.0003,-34.0157)">
			<title
   id="title23">Application Service plan.14372</title>
			<g
   id="group14373-2">
				<title
   id="title25">Sheet.14373</title>
				<g
   id="shape14374-3">
					<title
   id="title27">Sheet.14374</title>
					<path
   d="m 33.6,122.81 a 1.88528,1.86753 0 0 1 -1.92,1.9 H 1.89 A 1.88528,1.86753 0 0 1 0,122.81 V 69.92 a 1.88528,1.86753 0 0 1 1.89,-1.9 h 29.82 a 1.88528,1.86753 0 0 1 1.92,1.9 z"
   class="st1"
   id="path29"
   inkscape:connector-curvature="0"
   style="fill:url(#grad0-6);stroke:none;stroke-width:34;stroke-linecap:butt" />
				</g>
				<g
   id="shape14375-7"
   transform="translate(4.78052,-33.182)">
					<title
   id="title32">Sheet.14375</title>
					<path
   d="m 0,121.07 a 3.63589,3.60167 0 0 1 3.8,-3.6 h 16.84 a 3.63589,3.60167 0 0 1 3.53,3.6 3.63589,3.60167 0 0 1 -3.63,3.64 H 3.7 A 3.66955,3.63502 0 0 1 0,121.07 Z m 0,-10.73 a 3.66955,3.63502 0 0 1 3.8,-3.64 h 16.84 a 3.63589,3.60167 0 0 1 3.53,3.64 3.63589,3.60167 0 0 1 -3.63,3.6 H 3.7 A 3.63589,3.60167 0 0 1 0,110.34 Z"
   class="st2"
   id="path34"
   inkscape:connector-curvature="0"
   style="fill:#003067;stroke:none;stroke-width:34;stroke-linecap:butt" />
				</g>
				<g
   id="shape14376-9"
   transform="translate(6.26181,-45.1209)">
					<title
   id="title37">Sheet.14376</title>
					<ellipse
   cx="2.4575901"
   cy="122.275"
   rx="2.4575901"
   ry="2.4344599"
   class="st3"
   id="ellipse39"
   style="fill:#50e6ff;stroke:none;stroke-width:34;stroke-linecap:butt" />
				</g>
				<g
   id="shape14377-11"
   transform="translate(6.26181,-34.3826)">
					<title
   id="title42">Sheet.14377</title>
					<ellipse
   cx="2.4575901"
   cy="122.275"
   rx="2.4575901"
   ry="2.4344599"
   class="st3"
   id="ellipse44"
   style="fill:#50e6ff;stroke:none;stroke-width:34;stroke-linecap:butt" />
				</g>
				<g
   id="shape14378-13"
   transform="translate(10.5037)">
					<title
   id="title47">Sheet.14378</title>
					<path
   d="M 46.19,114.3 A 10.5037,10.4048 -180 0 0 37.2,104.3 13.2306,13.1061 -180 0 0 23.73,91.63 13.4663,13.3395 -180 0 0 10.84,100.5 12.4563,12.339 -180 0 0 0,112.47 12.6919,12.5725 -180 0 0 12.99,124.71 h 22.8 a 10.6047,10.5049 -180 0 0 10.4,-10.41 z"
   class="st4"
   id="path49"
   inkscape:connector-curvature="0"
   style="fill:url(#grad0-16);stroke:none;stroke-width:34;stroke-linecap:butt" />
				</g>
			</g>
		</g>
	</g>
</svg>

<?xml version="1.0" encoding="UTF-8" standalone="no"?>
<!DOCTYPE svg PUBLIC "-//W3C//DTD SVG 1.1//EN" "http://www.w3.org/Graphics/SVG/1.1/DTD/svg11.dtd">
<!-- Generated by Microsoft Visio, SVG Export Application Service plan.svg Page-1 -->
<svg xmlns="http://www.w3.org/2000/svg" xmlns:xlink="http://www.w3.org/1999/xlink" xmlns:ev="http://www.w3.org/2001/xml-events"
		width="1.73185in" height="1.73207in" viewBox="0 0 124.693 124.709" xml:space="preserve" color-interpolation-filters="sRGB"
		class="st5">
	<style type="text/css">
	<![CDATA[
		.st1 {fill:url(#grad0-6);stroke:none;stroke-linecap:butt;stroke-width:34}
		.st2 {fill:#003067;stroke:none;stroke-linecap:butt;stroke-width:34}
		.st3 {fill:#50e6ff;stroke:none;stroke-linecap:butt;stroke-width:34}
		.st4 {fill:url(#grad0-16);stroke:none;stroke-linecap:butt;stroke-width:34}
		.st5 {fill:none;fill-rule:evenodd;font-size:12px;overflow:visible;stroke-linecap:square;stroke-miterlimit:3}
	]]>
	</style>

	<defs id="Patterns_And_Gradients">
		<linearGradient id="grad0-6" x1="0" y1="0" x2="1" y2="0" gradientTransform="rotate(-90 0.5 0.5)">
			<stop offset="0.05" stop-color="#949494" stop-opacity="1"/>
			<stop offset="0.36" stop-color="#979797" stop-opacity="1"/>
			<stop offset="0.54" stop-color="#9f9f9f" stop-opacity="1"/>
			<stop offset="0.69" stop-color="#adadad" stop-opacity="1"/>
			<stop offset="0.73" stop-color="#b3b3b3" stop-opacity="1"/>
		</linearGradient>
		<linearGradient id="grad0-16" x1="0" y1="0" x2="1" y2="0" gradientTransform="rotate(90 0.5 0.5)">
			<stop offset="0.18" stop-color="#5ea0ef" stop-opacity="1"/>
			<stop offset="1" stop-color="#0078d4" stop-opacity="1"/>
		</linearGradient>
	</defs>
	<g>
		<title>Page-1</title>
		<g id="group14025-1" transform="translate(34.0003,-34.0157)">
			<title>Application Service plan.14025</title>
			<g id="group14026-2">
				<title>Sheet.14026</title>
				<g id="shape14027-3">
					<title>Sheet.14027</title>
					<path d="M33.6 122.81 A1.88528 1.86753 0 0 1 31.68 124.71 L1.89 124.71 A1.88528 1.86753 0 0 1 -0 122.81 L0 69.92
								 A1.88528 1.86753 0 0 1 1.89 68.02 L31.71 68.02 A1.88528 1.86753 0 0 1 33.63 69.92 L33.6 122.81 Z"
							class="st1"/>
				</g>
				<g id="shape14028-7" transform="translate(4.78052,-33.182)">
					<title>Sheet.14028</title>
					<path d="M0 121.07 A3.63589 3.60167 0 0 1 3.8 117.47 L20.64 117.47 A3.63589 3.60167 0 0 1 24.17 121.07 A3.63589
								 3.60167 0 0 1 20.54 124.71 L3.7 124.71 A3.66955 3.63502 0 0 1 -0 121.07 ZM0 110.34 A3.66955 3.63502
								 0 0 1 3.8 106.7 L20.64 106.7 A3.63589 3.60167 0 0 1 24.17 110.34 A3.63589 3.60167 0 0 1 20.54 113.94
								 L3.7 113.94 A3.63589 3.60167 0 0 1 -0 110.34 Z" class="st2"/>
				</g>
				<g id="shape14029-9" transform="translate(6.26181,-45.1209)">
					<title>Sheet.14029</title>
					<ellipse cx="2.45759" cy="122.275" rx="2.45759" ry="2.43446" class="st3"/>
				</g>
				<g id="shape14030-11" transform="translate(6.26181,-34.3826)">
					<title>Sheet.14030</title>
					<ellipse cx="2.45759" cy="122.275" rx="2.45759" ry="2.43446" class="st3"/>
				</g>
				<g id="shape14031-13" transform="translate(10.5037,2.98428E-13)">
					<title>Sheet.14031</title>
					<path d="M46.19 114.3 A10.5037 10.4048 -180 0 0 37.2 104.3 A13.2306 13.1061 -180 0 0 23.73 91.63 A13.4663 13.3395
								 -180 0 0 10.84 100.5 A12.4563 12.339 -180 0 0 0 112.47 A12.6919 12.5725 -180 0 0 12.99 124.71 L35.79
								 124.71 A10.6047 10.5049 -180 0 0 46.19 114.3 Z" class="st4"/>
				</g>
			</g>
		</g>
	</g>
</svg>
